assets/images/ico_help1.svg

<svg width="99" height="96" viewBox="0 0 99 96" fill="none" xmlns="http://www.w3.org/2000/svg">
<path d="M17.3259 54.6445C16.9174 54.6445 16.5088 55.0531 16.5088 55.4617V60.1602C16.5088 60.5687 16.9174 60.9773 17.3259 60.9773H52.2583C53.4839 58.628 55.1182 56.4831 56.9567 54.6445H17.3259Z" fill="black"/>
<path d="M17.4275 38.4062C16.9168 38.4062 16.6104 38.8148 16.6104 39.2234V43.9219C16.6104 44.4326 17.0189 44.739 17.4275 44.739H65.6382C66.1489 44.739 66.4553 44.3304 66.4553 43.9219V39.2234C66.4553 38.7127 66.0468 38.4062 65.6382 38.4062H17.4275Z" fill="black"/>
<path d="M49.1931 70.8861H10.4816C8.74516 70.8861 7.31518 69.4561 7.31518 67.7197V28.906H75.6477V46.4743C75.9542 46.4743 76.2606 46.4743 76.567 46.4743C78.4056 46.4743 80.2441 46.6786 81.9805 46.985V16.9555C81.9805 14.6062 81.0612 12.3591 79.6312 10.7248V10.6227H79.5291C77.7927 8.68201 75.3413 7.45632 72.4814 7.45632H65.5357V3.16638C65.5357 1.42998 64.1058 0 62.3694 0H57.5687C55.8323 0 54.4023 1.42998 54.4023 3.16638V7.35418H28.5606V3.16638C28.5606 1.42998 27.1306 0 25.3942 0H20.5936C18.8572 0 17.4272 1.42998 17.4272 3.16638V7.35418H10.4816C7.62161 7.35418 5.17022 8.57987 3.43381 10.5206H3.33167V10.6227C1.90169 12.257 0.982422 14.5041 0.982422 16.8533V67.7197C0.982422 73.0311 5.27236 77.2188 10.4816 77.2188H49.1931C49.091 76.0953 48.9888 75.0739 48.9888 73.9503C49.091 72.9289 49.091 71.9075 49.1931 70.8861Z" fill="black"/>
<path d="M76.5678 52.5C64.7194 52.5 55.1182 62.1013 55.1182 73.9497C55.1182 85.7981 64.7194 95.3993 76.5678 95.3993C88.4162 95.3993 98.0175 85.7981 98.0175 73.9497C98.0175 62.1013 88.4162 52.5 76.5678 52.5ZM76.5678 89.0666C68.2944 89.0666 61.4509 82.3253 61.4509 73.9497C61.4509 65.5741 68.1923 58.8328 76.5678 58.8328C84.9434 58.8328 91.6848 65.5741 91.6848 73.9497C91.6848 82.3253 84.9434 89.0666 76.5678 89.0666Z" fill="black"/>
<path d="M82.3898 70.7836H79.7341V65.2679C79.7341 63.5315 78.3041 62.1016 76.5677 62.1016C74.8313 62.1016 73.4014 63.5315 73.4014 65.2679V73.95C73.4014 75.6864 74.8313 77.1163 76.5677 77.1163H82.3898C84.1262 77.1163 85.5562 75.6864 85.5562 73.95C85.5562 72.2136 84.1262 70.7836 82.3898 70.7836Z" fill="black"/>
</svg>

<svg width="99" height="96" fill="none" xmlns="http://www.w3.org/2000/svg"><path d="M17.326 54.645c-.409 0-.817.408-.817.817v4.698c0 .409.408.817.817.817h34.932c1.226-2.349 2.86-4.494 4.699-6.332H17.326zm.101-16.239a.806.806 0 00-.817.817v4.699c0 .51.409.817.817.817h48.211c.51 0 .817-.409.817-.817v-4.699a.806.806 0 00-.817-.817h-48.21z" fill="#000"/><path d="M49.193 70.886H10.482a3.182 3.182 0 01-3.167-3.166V28.906h68.333v17.568h.919c1.839 0 3.677.205 5.414.511v-30.03c0-2.349-.92-4.596-2.35-6.23v-.102h-.102c-1.736-1.941-4.188-3.167-7.048-3.167h-6.945v-4.29A3.182 3.182 0 0062.369 0h-4.8a3.182 3.182 0 00-3.167 3.166v4.188H28.561V3.166A3.182 3.182 0 0025.394 0h-4.8a3.182 3.182 0 00-3.167 3.166v4.188h-6.945c-2.86 0-5.312 1.226-7.048 3.167h-.102v.102c-1.43 1.634-2.35 3.881-2.35 6.23V67.72c0 5.311 4.29 9.499 9.5 9.499h38.711c-.102-1.124-.204-2.145-.204-3.269.102-1.021.102-2.043.204-3.064z" fill="#000"/><path d="M76.568 52.5c-11.849 0-21.45 9.601-21.45 21.45 0 11.848 9.601 21.45 21.45 21.45 11.848 0 21.45-9.602 21.45-21.45 0-11.849-9.602-21.45-21.45-21.45zm0 36.567c-8.274 0-15.117-6.742-15.117-15.117a15.083 15.083 0 0115.117-15.117A15.083 15.083 0 0191.685 73.95a15.083 15.083 0 01-15.117 15.117z" fill="#000"/><path d="M82.39 70.784h-2.656v-5.516a3.182 3.182 0 00-3.166-3.166 3.182 3.182 0 00-3.167 3.166v8.682a3.182 3.182 0 003.167 3.166h5.822a3.182 3.182 0 003.166-3.166 3.182 3.182 0 00-3.166-3.166z" fill="#000"/></svg>
